public/linkedin.svg

<svg width="24" height="24" viewBox="0 0 24 24" fill="none" xmlns="http://www.w3.org/2000/svg">
<path d="M0 7.5H5.367V24H0V7.5ZM19.986 7.6935C19.929 7.6755 19.875 7.656 19.815 7.6395C19.743 7.6232 19.6704 7.60919 19.5975 7.5975C19.2806 7.53271 18.958 7.50004 18.6345 7.5C15.5055 7.5 13.521 9.7755 12.867 10.6545V7.5H7.5V24H12.867V15C12.867 15 16.923 9.351 18.6345 13.5V24H24V12.8655C23.9978 11.6807 23.6025 10.5301 22.8761 9.59416C22.1496 8.65818 21.1332 7.9897 19.986 7.6935Z" fill="#FAFBFF"/>
<path d="M2.625 5.25C4.07475 5.25 5.25 4.07475 5.25 2.625C5.25 1.17525 4.07475 0 2.625 0C1.17525 0 0 1.17525 0 2.625C0 4.07475 1.17525 5.25 2.625 5.25Z" fill="#FAFBFF"/>
</svg>

<svg width="24" height="24" fill="none" xmlns="http://www.w3.org/2000/svg"><path d="M0 7.5h5.367V24H0V7.5Zm19.986.194c-.057-.018-.111-.038-.171-.054a3.483 3.483 0 0 0-.218-.042 4.81 4.81 0 0 0-.963-.098c-3.129 0-5.113 2.275-5.767 3.155V7.5H7.5V24h5.367v-9s4.056-5.649 5.767-1.5V24H24V12.866a5.352 5.352 0 0 0-4.014-5.172ZM2.625 5.25a2.625 2.625 0 1 0 0-5.25 2.625 2.625 0 0 0 0 5.25Z" fill="#FAFBFF"/></svg>
